apps/www/public/images/partners/bg-soft-blur.svg

<svg width="759" height="440" viewBox="0 0 759 440" fill="none" xmlns="http://www.w3.org/2000/svg">
<g clip-path="url(#clip0_220_165478)">
<path opacity="0.2" fill-rule="evenodd" clip-rule="evenodd" d="M59.9667 234.773V280.102H13.9893V281.398H59.9667V326.727H13.9893V328.023H59.9667V374H61.2618V328.023H106.592V374H107.887V328.023H153.217V374H154.512V328.023H199.842V374H201.137V328.023H246.467V374H247.762V328.023H293.092V374H294.387V328.023H339.717V374H341.012V328.023H386.342V374H387.637V328.023H432.967V374H434.262V328.023H479.592V374H480.887V328.023H526.217V374H527.512V328.023H572.842V374H574.137V328.023H619.467V374H620.762V328.023H666.092V374H667.387V328.023H712.717V374H714.012V328.023H759.989V326.727H714.012V281.398H759.989V280.102H714.012V234.773H759.989V233.477H714.012V188.148H759.989V186.852H714.012V141.523H759.989V140.227H714.012V94.8976H759.989V93.6024H714.012V48.2726H759.989V46.9774H714.012V1.64755H759.989V0.352415H714.012V-44.9774H759.989V-46.2726H714.012V-91.6024H759.989V-92.8976H714.012V-138.227H759.989V-139.523H714.012V-184.852H759.989V-186.148H714.012V-231.477H759.989V-232.773H714.012V-278.102H759.989V-279.398H714.012V-324.727H759.989V-326.023H714.012V-372H712.717V-326.023H667.387V-372H666.092V-326.023H620.762V-372H619.467V-326.023H574.137V-372H572.842V-326.023H527.512V-372H526.217V-326.023H480.887V-372H479.592V-326.023H434.262V-372H432.967V-326.023H387.637V-372H386.342V-326.023H341.012V-372H339.717V-326.023H294.387V-372H293.092V-326.023H247.762V-372H246.467V-326.023H201.137V-372H199.842V-326.023H154.512V-372H153.217V-326.023H107.887V-372H106.592V-326.023H61.2618V-372H59.9667V-326.023H13.9893V-324.727H59.9667V-279.398H13.9893V-278.102H59.9667V-232.773H13.9893V-231.477H59.9667V-186.148H13.9893V-184.852H59.9667V-139.523H13.9893V-138.227H59.9667V-92.8976H13.9893V-91.6025H59.9667V-46.2726H13.9893V-44.9775H59.9667V0.352376H13.9893V1.64751H59.9667V46.9774H13.9893V48.2725H59.9667V93.6024H13.9893V94.8975H59.9667V140.227H13.9893V141.523H59.9667V186.852H13.9893V188.148H59.9667V233.477H13.9893V234.773H59.9667ZM712.717 326.727V281.398H667.387V326.727H712.717ZM666.092 326.727V281.398H620.762V326.727H666.092ZM619.467 326.727V281.398H574.137V326.727H619.467ZM572.842 326.727V281.398H527.512V326.727H572.842ZM526.217 326.727V281.398H480.887V326.727H526.217ZM479.592 326.727V281.398H434.262V326.727H479.592ZM432.967 326.727V281.398H387.637V326.727H432.967ZM386.342 326.727V281.398H341.012V326.727H386.342ZM339.717 326.727V281.398H294.387V326.727H339.717ZM293.092 326.727V281.398H247.762V326.727H293.092ZM246.467 326.727V281.398H201.137V326.727H246.467ZM199.842 326.727V281.398H154.512V326.727H199.842ZM153.217 326.727V281.398H107.887V326.727H153.217ZM106.592 326.727V281.398H61.2618V326.727H106.592ZM106.592 280.102H61.2618V234.773H106.592V280.102ZM153.217 280.102H107.887V234.773H153.217V280.102ZM199.842 280.102H154.512V234.773H199.842V280.102ZM246.467 280.102H201.137V234.773H246.467V280.102ZM293.092 280.102H247.762V234.773H293.092V280.102ZM339.717 280.102H294.387V234.773H339.717V280.102ZM386.342 280.102H341.012V234.773H386.342V280.102ZM432.967 280.102H387.637V234.773H432.967V280.102ZM479.592 280.102H434.262V234.773H479.592V280.102ZM526.217 280.102H480.887V234.773H526.217V280.102ZM572.842 280.102H527.512V234.773H572.842V280.102ZM619.467 280.102H574.137V234.773H619.467V280.102ZM666.092 280.102H620.762V234.773H666.092V280.102ZM712.717 280.102H667.387V234.773H712.717V280.102ZM712.717 -324.727H667.387V-279.398H712.717V-324.727ZM712.717 -278.102H667.387V-232.773H712.717V-278.102ZM712.717 -231.477H667.387V-186.148H712.717V-231.477ZM712.717 -184.852H667.387V-139.523H712.717V-184.852ZM712.717 -138.227H667.387V-92.8976H712.717V-138.227ZM712.717 -91.6025H667.387V-46.2726H712.717V-91.6025ZM712.717 -44.9775H667.387V0.352415H712.717V-44.9775ZM712.717 1.64755H667.387V46.9774H712.717V1.64755ZM712.717 48.2726H667.387V93.6024H712.717V48.2726ZM712.717 94.8976H667.387V140.227H712.717V94.8976ZM712.717 141.523H667.387V186.852H712.717V141.523ZM712.717 188.148H667.387V233.477H712.717V188.148ZM666.092 188.148V233.477H620.762V188.148H666.092ZM666.092 141.523V186.852H620.762V141.523H666.092ZM666.092 94.8976V140.227H620.762V94.8976H666.092ZM666.092 48.2726V93.6024H620.762V48.2726H666.092ZM666.092 1.64755V46.9774H620.762V1.64755H666.092ZM666.092 -44.9775V0.352415H620.762V-44.9775H666.092ZM666.092 -91.6025V-46.2726H620.762V-91.6025H666.092ZM666.092 -138.227V-92.8976H620.762V-138.227H666.092ZM666.092 -184.852V-139.523H620.762V-184.852H666.092ZM666.092 -231.477V-186.148H620.762V-231.477H666.092ZM666.092 -278.102V-232.773H620.762V-278.102H666.092ZM666.092 -324.727V-279.398H620.762V-324.727H666.092ZM61.2618 233.477H106.592V188.148H61.2618V233.477ZM107.887 233.477H153.217V188.148H107.887V233.477ZM154.512 233.477H199.842V188.148H154.512V233.477ZM201.137 233.477H246.467V188.148H201.137V233.477ZM247.762 233.477H293.092V188.148H247.762V233.477ZM294.387 233.477H339.717V188.148H294.387V233.477ZM341.012 233.477H386.342V188.148H341.012V233.477ZM387.637 233.477H432.967V188.148H387.637V233.477ZM434.262 233.477H479.592V188.148H434.262V233.477ZM480.887 233.477H526.217V188.148H480.887V233.477ZM527.512 233.477H572.842V188.148H527.512V233.477ZM574.137 233.477H619.467V188.148H574.137V233.477ZM619.467 141.523V186.852H574.137V141.523H619.467ZM619.467 94.8976V140.227H574.137V94.8976H619.467ZM619.467 48.2726V93.6024H574.137V48.2726H619.467ZM619.467 1.64755V46.9774H574.137V1.64755H619.467ZM619.467 -44.9775V0.352415H574.137V-44.9775H619.467ZM619.467 -91.6025V-46.2726H574.137V-91.6025H619.467ZM619.467 -138.227V-92.8976H574.137V-138.227H619.467ZM619.467 -184.852V-139.523H574.137V-184.852H619.467ZM619.467 -231.477V-186.148H574.137V-231.477H619.467ZM619.467 -278.102V-232.773H574.137V-278.102H619.467ZM619.467 -324.727V-279.398H574.137V-324.727H619.467ZM61.2618 186.852H106.592V141.523H61.2618V186.852ZM107.887 186.852H153.217V141.523H107.887V186.852ZM154.512 186.852H199.842V141.523H154.512V186.852ZM201.137 186.852H246.467V141.523H201.137V186.852ZM247.762 186.852H293.092V141.523H247.762V186.852ZM294.387 186.852H339.717V141.523H294.387V186.852ZM341.012 186.852H386.342V141.523H341.012V186.852ZM387.637 186.852H432.967V141.523H387.637V186.852ZM434.262 186.852H479.592V141.523H434.262V186.852ZM480.887 186.852H526.217V141.523H480.887V186.852ZM527.512 186.852H572.842V141.523H527.512V186.852ZM572.842 94.8976V140.227H527.512V94.8976H572.842ZM572.842 48.2726V93.6024H527.512V48.2726H572.842ZM572.842 1.64755V46.9774H527.512V1.64755H572.842ZM572.842 -44.9775V0.352415H527.512V-44.9775H572.842ZM572.842 -91.6025V-46.2726H527.512V-91.6025H572.842ZM572.842 -138.227V-92.8976H527.512V-138.227H572.842ZM572.842 -184.852V-139.523H527.512V-184.852H572.842ZM572.842 -231.477V-186.148H527.512V-231.477H572.842ZM572.842 -278.102V-232.773H527.512V-278.102H572.842ZM572.842 -324.727V-279.398H527.512V-324.727H572.842ZM61.2618 140.227H106.592V94.8975H61.2618V140.227ZM107.887 140.227H153.217V94.8975H107.887V140.227ZM154.512 140.227H199.842V94.8975H154.512V140.227ZM201.137 140.227H246.467V94.8975H201.137V140.227ZM247.762 140.227H293.092V94.8975H247.762V140.227ZM294.387 140.227H339.717V94.8975H294.387V140.227ZM341.012 140.227H386.342V94.8975H341.012V140.227ZM387.637 140.227H432.967V94.8976H387.637V140.227ZM434.262 140.227H479.592V94.8976H434.262V140.227ZM480.887 140.227H526.217V94.8976H480.887V140.227ZM526.217 48.2726V93.6024H480.887V48.2726H526.217ZM526.217 1.64755V46.9774H480.887V1.64755H526.217ZM526.217 -44.9775V0.352415H480.887V-44.9775H526.217ZM526.217 -91.6025V-46.2726H480.887V-91.6025H526.217ZM526.217 -138.227V-92.8976H480.887V-138.227H526.217ZM526.217 -184.852V-139.523H480.887V-184.852H526.217ZM526.217 -231.477V-186.148H480.887V-231.477H526.217ZM526.217 -278.102V-232.773H480.887V-278.102H526.217ZM526.217 -324.727V-279.398H480.887V-324.727H526.217ZM61.2618 93.6024H106.592V48.2725H61.2618V93.6024ZM107.887 93.6024H153.217V48.2725H107.887V93.6024ZM154.512 93.6024H199.842V48.2725H154.512V93.6024ZM201.137 93.6024H246.467V48.2725H201.137V93.6024ZM247.762 93.6024H293.092V48.2725H247.762V93.6024ZM294.387 93.6024H339.717V48.2725H294.387V93.6024ZM341.012 93.6024H386.342V48.2725H341.012V93.6024ZM387.637 93.6024H432.967V48.2726H387.637V93.6024ZM434.262 93.6024H479.592V48.2726H434.262V93.6024ZM479.592 1.64755V46.9774H434.262V1.64755H479.592ZM479.592 -44.9775V0.352415H434.262V-44.9775H479.592ZM479.592 -91.6025V-46.2726H434.262V-91.6025H479.592ZM479.592 -138.227V-92.8976H434.262V-138.227H479.592ZM479.592 -184.852V-139.523H434.262V-184.852H479.592ZM479.592 -231.477V-186.148H434.262V-231.477H479.592ZM479.592 -278.102V-232.773H434.262V-278.102H479.592ZM479.592 -324.727V-279.398H434.262V-324.727H479.592ZM61.2618 46.9774H106.592V1.64751H61.2618V46.9774ZM107.887 46.9774H153.217V1.64751H107.887V46.9774ZM154.512 46.9774H199.842V1.64751H154.512V46.9774ZM201.137 46.9774H246.467V1.64751H201.137V46.9774ZM247.762 46.9774H293.092V1.64751H247.762V46.9774ZM294.387 46.9774H339.717V1.64751H294.387V46.9774ZM341.012 46.9774H386.342V1.64751H341.012V46.9774ZM387.637 46.9774H432.967V1.64755H387.637V46.9774ZM432.967 -44.9775V0.352415H387.637V-44.9775H432.967ZM432.967 -91.6025V-46.2726H387.637V-91.6025H432.967ZM432.967 -138.227V-92.8976H387.637V-138.227H432.967ZM432.967 -184.852V-139.523H387.637V-184.852H432.967ZM432.967 -231.477V-186.148H387.637V-231.477H432.967ZM432.967 -278.102V-232.773H387.637V-278.102H432.967ZM432.967 -324.727V-279.398H387.637V-324.727H432.967ZM61.2618 0.352376H106.592V-44.9775H61.2618V0.352376ZM107.887 0.352376H153.217V-44.9775H107.887V0.352376ZM154.512 0.352376H199.842V-44.9775H154.512V0.352376ZM201.137 0.352376H246.467V-44.9775H201.137V0.352376ZM247.762 0.352376H293.092V-44.9775H247.762V0.352376ZM294.387 0.352376H339.717V-44.9775H294.387V0.352376ZM341.012 0.352376H386.342V-44.9775H341.012V0.352376ZM386.342 -91.6025V-46.2726H341.012V-91.6025H386.342ZM386.342 -138.227V-92.8976H341.012V-138.227H386.342ZM386.342 -184.852V-139.523H341.012V-184.852H386.342ZM386.342 -231.477V-186.148H341.012V-231.477H386.342ZM386.342 -278.102V-232.773H341.012V-278.102H386.342ZM386.342 -324.727V-279.398H341.012V-324.727H386.342ZM61.2618 -46.2726H106.592V-91.6025H61.2618V-46.2726ZM107.887 -46.2726H153.217V-91.6025H107.887V-46.2726ZM154.512 -46.2726H199.842V-91.6025H154.512V-46.2726ZM201.137 -46.2726H246.467V-91.6025H201.137V-46.2726ZM247.762 -46.2726H293.092V-91.6025H247.762V-46.2726ZM294.387 -46.2726H339.717V-91.6025H294.387V-46.2726ZM339.717 -138.227V-92.8976H294.387V-138.227H339.717ZM339.717 -184.852V-139.523H294.387V-184.852H339.717ZM339.717 -231.477V-186.148H294.387V-231.477H339.717ZM339.717 -278.102V-232.773H294.387V-278.102H339.717ZM339.717 -324.727V-279.398H294.387V-324.727H339.717ZM61.2618 -92.8976H106.592V-138.227H61.2618V-92.8976ZM107.887 -92.8976H153.217V-138.227H107.887V-92.8976ZM154.512 -92.8976H199.842V-138.227H154.512V-92.8976ZM201.137 -92.8976H246.467V-138.227H201.137V-92.8976ZM247.762 -92.8976H293.092V-138.227H247.762V-92.8976ZM293.092 -184.852V-139.523H247.762V-184.852H293.092ZM293.092 -231.477V-186.148H247.762V-231.477H293.092ZM293.092 -278.102V-232.773H247.762V-278.102H293.092ZM293.092 -324.727V-279.398H247.762V-324.727H293.092ZM61.2618 -139.523H106.592V-184.852H61.2618V-139.523ZM107.887 -139.523H153.217V-184.852H107.887V-139.523ZM154.512 -139.523H199.842V-184.852H154.512V-139.523ZM201.137 -139.523H246.467V-184.852H201.137V-139.523ZM246.467 -231.477V-186.148H201.137V-231.477H246.467ZM246.467 -278.102V-232.773H201.137V-278.102H246.467ZM246.467 -324.727V-279.398H201.137V-324.727H246.467ZM61.2618 -186.148H106.592V-231.477H61.2618V-186.148ZM107.887 -186.148H153.217V-231.477L107.887 -231.477V-186.148ZM154.512 -186.148H199.842V-231.477H154.512V-186.148ZM199.842 -278.102V-232.773H154.512V-278.102H199.842ZM199.842 -324.727V-279.398H154.512V-324.727H199.842ZM61.2618 -232.773H106.592V-278.102H61.2618V-232.773ZM107.887 -232.773L153.217 -232.773V-278.102H107.887V-232.773ZM153.217 -324.727V-279.398H107.887V-324.727H153.217ZM61.2618 -279.398H106.592V-324.727H61.2618V-279.398Z" fill="url(#paint0_radial_220_165478)" fill-opacity="0.6"/>
<g filter="url(#filter0_f_220_165478)">
<path d="M323.359 328.302C261.359 326.343 248.198 185.085 249.367 114.701C245.781 -23.1565 38.5496 -27.5879 119.608 -103.238C200.667 -178.887 268.875 -66.1342 419.283 -29.6888C569.691 6.75665 422.437 120.585 396.826 219.768C371.215 318.952 542.683 366.824 518.915 423.119C495.147 479.414 400.86 330.751 323.359 328.302Z" fill="url(#paint1_linear_220_165478)" fill-opacity="0.8"/>
</g>
</g>
<defs>
<filter id="filter0_f_220_165478" x="-29.1807" y="-258.811" width="680.363" height="824.65" filterUnits="userSpaceOnUse" color-interpolation-filters="sRGB">
<feFlood flood-opacity="0" result="BackgroundImageFix"/>
<feBlend mode="normal" in="SourceGraphic" in2="BackgroundImageFix" result="shape"/>
<feGaussianBlur stdDeviation="65" result="effect1_foregroundBlur_220_165478"/>
</filter>
<radialGradient id="paint0_radial_220_165478" cx="0" cy="0" r="1" gradientUnits="userSpaceOnUse" gradientTransform="translate(386.989 1) rotate(90) scale(338.641 417.448)">
<stop stop-color="#0DFB90"/>
<stop offset="1" stop-color="#7298F9" stop-opacity="0"/>
</radialGradient>
<linearGradient id="paint1_linear_220_165478" x1="522.403" y1="297.973" x2="67.9033" y2="176.19" gradientUnits="userSpaceOnUse">
<stop stop-color="#03C9B2" stop-opacity="0.37"/>
<stop offset="1" stop-color="#0055B8"/>
</linearGradient>
<clipPath id="clip0_220_165478">
<rect width="759" height="440" fill="white"/>
</clipPath>
</defs>
</svg>

<svg xmlns="http://www.w3.org/2000/svg" width="759" height="440" fill="none" viewBox="0 0 759 440"><g clip-path="url(#a)"><path fill="url(#b)" fill-opacity=".6" fill-rule="evenodd" d="M59.967 234.773v45.329H13.989v1.296h45.978v45.329H13.989v1.296h45.978V374h1.295v-45.977h45.33V374h1.295v-45.977h45.33V374h1.295v-45.977h45.33V374h1.295v-45.977h45.33V374h1.295v-45.977h45.33V374h1.295v-45.977h45.33V374h1.295v-45.977h45.33V374h1.295v-45.977h45.33V374h1.295v-45.977h45.33V374h1.295v-45.977h45.33V374h1.295v-45.977h45.33V374h1.295v-45.977h45.33V374h1.295v-45.977h45.33V374h1.295v-45.977h45.33V374h1.295v-45.977h45.977v-1.296h-45.977v-45.329h45.977v-1.296h-45.977v-45.329h45.977v-1.296h-45.977v-45.329h45.977v-1.296h-45.977v-45.329h45.977v-1.296h-45.977v-45.33h45.977v-1.295h-45.977v-45.33h45.977v-1.295h-45.977V1.647h45.977V.353h-45.977v-45.33h45.977v-1.295h-45.977v-45.33h45.977v-1.295h-45.977v-45.329h45.977v-1.296h-45.977v-45.329h45.977v-1.296h-45.977v-45.329h45.977v-1.296h-45.977v-45.329h45.977v-1.296h-45.977v-45.329h45.977v-1.296h-45.977V-372h-1.295v45.977h-45.33V-372h-1.295v45.977h-45.33V-372h-1.295v45.977h-45.33V-372h-1.295v45.977h-45.33V-372h-1.295v45.977h-45.33V-372h-1.295v45.977h-45.33V-372h-1.295v45.977h-45.33V-372h-1.295v45.977h-45.33V-372h-1.295v45.977h-45.33V-372h-1.295v45.977h-45.33V-372h-1.295v45.977h-45.33V-372h-1.295v45.977h-45.33V-372h-1.295v45.977h-45.33V-372h-1.295v45.977h-45.33V-372h-1.295v45.977H13.989v1.296h45.978v45.329H13.989v1.296h45.978v45.329H13.989v1.296h45.978v45.329H13.989v1.296h45.978v45.329H13.989v1.296h45.978v45.33H13.989v1.294h45.978v45.33H13.989v1.296h45.978V.352H13.989v1.295h45.978v45.33H13.989v1.294h45.978v45.33H13.989v1.295h45.978v45.33H13.989v1.296h45.978v45.329H13.989v1.296h45.978v45.329H13.989v1.296zm652.75 91.954v-45.329h-45.33v45.329zm-46.625 0v-45.329h-45.33v45.329zm-46.625 0v-45.329h-45.33v45.329zm-46.625 0v-45.329h-45.33v45.329zm-46.625 0v-45.329h-45.33v45.329zm-46.625 0v-45.329h-45.33v45.329zm-46.625 0v-45.329h-45.33v45.329zm-46.625 0v-45.329h-45.33v45.329zm-46.625 0v-45.329h-45.33v45.329zm-46.625 0v-45.329h-45.33v45.329zm-46.625 0v-45.329h-45.33v45.329zm-46.625 0v-45.329h-45.33v45.329zm-46.625 0v-45.329h-45.33v45.329zm-46.625 0v-45.329h-45.33v45.329zm0-46.625h-45.33v-45.329h45.33zm46.625 0h-45.33v-45.329h45.33zm46.625 0h-45.33v-45.329h45.33zm46.625 0h-45.33v-45.329h45.33zm46.625 0h-45.33v-45.329h45.33zm46.625 0h-45.33v-45.329h45.33zm46.625 0h-45.33v-45.329h45.33zm46.625 0h-45.33v-45.329h45.33zm46.625 0h-45.33v-45.329h45.33zm46.625 0h-45.33v-45.329h45.33zm46.625 0h-45.33v-45.329h45.33zm46.625 0h-45.33v-45.329h45.33zm46.625 0h-45.33v-45.329h45.33zm46.625 0h-45.33v-45.329h45.33zm0-604.829h-45.33v45.329h45.33zm0 46.625h-45.33v45.329h45.33zm0 46.625h-45.33v45.329h45.33zm0 46.625h-45.33v45.329h45.33zm0 46.625h-45.33v45.33h45.33zm0 46.625h-45.33v45.33h45.33zm0 46.625h-45.33V.352h45.33zm0 46.625h-45.33v45.33h45.33zm0 46.625h-45.33v45.33h45.33zm0 46.625h-45.33v45.329h45.33zm0 46.625h-45.33v45.329h45.33zm0 46.625h-45.33v45.329h45.33zm-46.625 0v45.329h-45.33v-45.329zm0-46.625v45.329h-45.33v-45.329zm0-46.625v45.329h-45.33v-45.33zm0-46.625v45.33h-45.33v-45.33zm0-46.625v45.33h-45.33V1.647zm0-46.625V.352h-45.33v-45.33zm0-46.626v45.33h-45.33v-45.33zm0-46.624v45.33h-45.33v-45.33zm0-46.625v45.329h-45.33v-45.329zm0-46.625v45.329h-45.33v-45.329zm0-46.625v45.329h-45.33v-45.329zm0-46.625v45.329h-45.33v-45.329zM61.262 233.477h45.33v-45.329h-45.33zm46.625 0h45.33v-45.329h-45.33zm46.625 0h45.33v-45.329h-45.33zm46.625 0h45.33v-45.329h-45.33zm46.625 0h45.33v-45.329h-45.33zm46.625 0h45.33v-45.329h-45.33zm46.625 0h45.33v-45.329h-45.33zm46.625 0h45.33v-45.329h-45.33zm46.625 0h45.33v-45.329h-45.33zm46.625 0h45.33v-45.329h-45.33zm46.625 0h45.33v-45.329h-45.33zm46.625 0h45.33v-45.329h-45.33zm45.33-91.954v45.329h-45.33v-45.329zm0-46.625v45.329h-45.33v-45.33zm0-46.625v45.33h-45.33v-45.33zm0-46.625v45.33h-45.33V1.647zm0-46.625V.352h-45.33v-45.33zm0-46.626v45.33h-45.33v-45.33zm0-46.624v45.33h-45.33v-45.33zm0-46.625v45.329h-45.33v-45.329zm0-46.625v45.329h-45.33v-45.329zm0-46.625v45.329h-45.33v-45.329zm0-46.625v45.329h-45.33v-45.329zM61.262 186.852h45.33v-45.329h-45.33zm46.625 0h45.33v-45.329h-45.33zm46.625 0h45.33v-45.329h-45.33zm46.625 0h45.33v-45.329h-45.33zm46.625 0h45.33v-45.329h-45.33zm46.625 0h45.33v-45.329h-45.33zm46.625 0h45.33v-45.329h-45.33zm46.625 0h45.33v-45.329h-45.33zm46.625 0h45.33v-45.329h-45.33zm46.625 0h45.33v-45.329h-45.33zm46.625 0h45.33v-45.329h-45.33zm45.33-91.954v45.329h-45.33v-45.33zm0-46.625v45.33h-45.33v-45.33zm0-46.625v45.33h-45.33V1.647zm0-46.625V.352h-45.33v-45.33zm0-46.626v45.33h-45.33v-45.33zm0-46.624v45.33h-45.33v-45.33zm0-46.625v45.329h-45.33v-45.329zm0-46.625v45.329h-45.33v-45.329zm0-46.625v45.329h-45.33v-45.329zm0-46.625v45.329h-45.33v-45.329zM61.262 140.227h45.33v-45.33h-45.33zm46.625 0h45.33v-45.33h-45.33zm46.625 0h45.33v-45.33h-45.33zm46.625 0h45.33v-45.33h-45.33zm46.625 0h45.33v-45.33h-45.33zm46.625 0h45.33v-45.33h-45.33zm46.625 0h45.33v-45.33h-45.33zm46.625 0h45.33v-45.33h-45.33zm46.625 0h45.33v-45.33h-45.33zm46.625 0h45.33v-45.33h-45.33zm45.33-91.954v45.33h-45.33v-45.33zm0-46.625v45.33h-45.33V1.647zm0-46.625V.352h-45.33v-45.33zm0-46.626v45.33h-45.33v-45.33zm0-46.624v45.33h-45.33v-45.33zm0-46.625v45.329h-45.33v-45.329zm0-46.625v45.329h-45.33v-45.329zm0-46.625v45.329h-45.33v-45.329zm0-46.625v45.329h-45.33v-45.329zM61.262 93.603h45.33v-45.33h-45.33zm46.625 0h45.33v-45.33h-45.33zm46.625 0h45.33v-45.33h-45.33zm46.625 0h45.33v-45.33h-45.33zm46.625 0h45.33v-45.33h-45.33zm46.625 0h45.33v-45.33h-45.33zm46.625 0h45.33v-45.33h-45.33zm46.625 0h45.33v-45.33h-45.33zm46.625 0h45.33v-45.33h-45.33zm45.33-91.955v45.33h-45.33V1.647zm0-46.625V.352h-45.33v-45.33zm0-46.626v45.33h-45.33v-45.33zm0-46.624v45.33h-45.33v-45.33zm0-46.625v45.329h-45.33v-45.329zm0-46.625v45.329h-45.33v-45.329zm0-46.625v45.329h-45.33v-45.329zm0-46.625v45.329h-45.33v-45.329zM61.262 46.977h45.33V1.647h-45.33zm46.625 0h45.33V1.647h-45.33zm46.625 0h45.33V1.647h-45.33zm46.625 0h45.33V1.647h-45.33zm46.625 0h45.33V1.647h-45.33zm46.625 0h45.33V1.647h-45.33zm46.625 0h45.33V1.647h-45.33zm46.625 0h45.33V1.647h-45.33zm45.33-91.954V.352h-45.33v-45.33zm0-46.626v45.33h-45.33v-45.33zm0-46.624v45.33h-45.33v-45.33zm0-46.625v45.329h-45.33v-45.329zm0-46.625v45.329h-45.33v-45.329zm0-46.625v45.329h-45.33v-45.329zm0-46.625v45.329h-45.33v-45.329zM61.262.353h45.33v-45.33h-45.33zm46.625 0h45.33v-45.33h-45.33zm46.625 0h45.33v-45.33h-45.33zm46.625 0h45.33v-45.33h-45.33zm46.625 0h45.33v-45.33h-45.33zm46.625 0h45.33v-45.33h-45.33zm46.625 0h45.33v-45.33h-45.33zm45.33-91.956v45.33h-45.33v-45.33zm0-46.624v45.33h-45.33v-45.33zm0-46.625v45.329h-45.33v-45.329zm0-46.625v45.329h-45.33v-45.329zm0-46.625v45.329h-45.33v-45.329zm0-46.625v45.329h-45.33v-45.329zM61.262-46.273h45.33v-45.33h-45.33zm46.625 0h45.33v-45.33h-45.33zm46.625 0h45.33v-45.33h-45.33zm46.625 0h45.33v-45.33h-45.33zm46.625 0h45.33v-45.33h-45.33zm46.625 0h45.33v-45.33h-45.33zm45.33-91.954v45.33h-45.33v-45.33zm0-46.625v45.329h-45.33v-45.329zm0-46.625v45.329h-45.33v-45.329zm0-46.625v45.329h-45.33v-45.329zm0-46.625v45.329h-45.33v-45.329zM61.262-92.897h45.33v-45.33h-45.33zm46.625 0h45.33v-45.33h-45.33zm46.625 0h45.33v-45.33h-45.33zm46.625 0h45.33v-45.33h-45.33zm46.625 0h45.33v-45.33h-45.33zm45.33-91.955v45.329h-45.33v-45.329zm0-46.625v45.329h-45.33v-45.329zm0-46.625v45.329h-45.33v-45.329zm0-46.625v45.329h-45.33v-45.329zM61.262-139.523h45.33v-45.329h-45.33zm46.625 0h45.33v-45.329h-45.33zm46.625 0h45.33v-45.329h-45.33zm46.625 0h45.33v-45.329h-45.33zm45.33-91.954v45.329h-45.33v-45.329zm0-46.625v45.329h-45.33v-45.329zm0-46.625v45.329h-45.33v-45.329zM61.262-186.148h45.33v-45.329h-45.33zm46.625 0h45.33v-45.329h-45.33zm46.625 0h45.33v-45.329h-45.33zm45.33-91.954v45.329h-45.33v-45.329zm0-46.625v45.329h-45.33v-45.329zm-138.58 91.954h45.33v-45.329h-45.33zm46.625 0h45.33v-45.329h-45.33zm45.33-91.954v45.329h-45.33v-45.329zm-91.955 45.329h45.33v-45.329h-45.33z" clip-rule="evenodd" opacity=".2"/><g filter="url(#c)"><path fill="url(#d)" fill-opacity=".8" d="M323.359 328.302c-62-1.959-75.161-143.217-73.992-213.601C245.781-23.156 38.55-27.588 119.608-103.238c81.059-75.649 149.267 37.104 299.675 73.55s3.154 150.273-22.457 249.456c-25.611 99.184 145.857 147.056 122.089 203.351s-118.055-92.368-195.556-94.817"/></g></g><defs><radialGradient id="b" cx="0" cy="0" r="1" gradientTransform="matrix(0 338.641 -417.448 0 386.989 1)" gradientUnits="userSpaceOnUse"><stop stop-color="#0dfb90"/><stop offset="1" stop-color="#7298f9" stop-opacity="0"/></radialGradient><linearGradient id="d" x1="522.403" x2="67.903" y1="297.973" y2="176.19" gradientUnits="userSpaceOnUse"><stop stop-color="#03c9b2" stop-opacity=".37"/><stop offset="1" stop-color="#0055b8"/></linearGradient><clipPath id="a"><path fill="#fff" d="M0 0h759v440H0z"/></clipPath><filter id="c" width="680.363" height="824.65" x="-29.181" y="-258.811" color-interpolation-filters="sRGB" filterUnits="userSpaceOnUse"><feFlood flood-opacity="0" result="BackgroundImageFix"/><feBlend in="SourceGraphic" in2="BackgroundImageFix" result="shape"/><feGaussianBlur result="effect1_foregroundBlur_220_165478" stdDeviation="65"/></filter></defs></svg>
